icons/document-divide-outline.svg

<svg xmlns="http://www.w3.org/2000/svg" width="24" height="24" viewBox="0 0 24 24">
  <path d="M12,1 L12,8 C12,8.55228475 12.4477153,9 13,9 L20,9 L20,21 C20,22.1045695 19.1045695,23 18,23 L6,23 C4.8954305,23 4,22.1045695 4,21 L4,3 C4,1.8954305 4.8954305,1 6,1 L12,1 Z M10,3 L6,3 L6,21 L18,21 L18,11 L13,11 C11.4023191,11 10.0963391,9.75108004 10.0050927,8.17627279 L10,8 L10,3 Z M12,18 C12.5522847,18 13,18.4477153 13,19 C13,19.5522847 12.5522847,20 12,20 C11.4477153,20 11,19.5522847 11,19 C11,18.4477153 11.4477153,18 12,18 Z M15,15 C15.5522847,15 16,15.4477153 16,16 C16,16.5128358 15.6139598,16.9355072 15.1166211,16.9932723 L15,17 L9,17 C8.44771525,17 8,16.5522847 8,16 C8,15.4871642 8.38604019,15.0644928 8.88337887,15.0067277 L9,15 L15,15 Z M12,12 C12.5522847,12 13,12.4477153 13,13 C13,13.5522847 12.5522847,14 12,14 C11.4477153,14 11,13.5522847 11,13 C11,12.4477153 11.4477153,12 12,12 Z M14,1 L20,7 L15,7 C14.4871642,7 14.0644928,6.61395981 14.0067277,6.11662113 L14,6 L14,1 Z"/>
</svg>

<svg xmlns="http://www.w3.org/2000/svg" viewBox="0 0 24 24">
  <path d="M12 1v7a1 1 0 0 0 1 1h7v12a2 2 0 0 1-2 2H6a2 2 0 0 1-2-2V3c0-1.1.9-2 2-2h6zm-2 2H6v18h12V11h-5a3 3 0 0 1-3-2.82V3zm2 15a1 1 0 1 1 0 2 1 1 0 0 1 0-2zm3-3a1 1 0 0 1 .12 2H9a1 1 0 0 1-.12-2H15zm-3-3a1 1 0 1 1 0 2 1 1 0 0 1 0-2zm2-11 6 6h-5a1 1 0 0 1-1-.88V1z"/>
</svg>
